X: 91
T:Turkey in the Straw
% Nottingham Music Database
S:Kevin Briggs, via EF
M:4/4
L:1/4
K:G
P:A
B/4A/4|"G"G/4F/4G/4A/4 G/B,/4C/4|"G"D/4E/4D/4B,/4 D/G/4A/4|"G"B/B/ "Em"B/4A/4G/4A/4|"Am"B/A/ "D7"A/B/4A/4|
"G"G/4F/4G/4A/4 G/B,/4C/4|"G"D/4E/4D/4B,/4 D/G/4A/4|"G"B/4d/e/4 "Em"d/4B/4G/4A/4|\
"D7"B/A/ "G"G|
P:B
G/A/|"G"B/4d/B/4 d|"G7"B/4d/B/4 d|"C"c/4e/c/4 e|"C"c/4e/c/4 "D7"e/e/4f/4|
"G"g/g/ d/d/|"G"B/4d/4B/4G/4 "D7"A/G/4A/4|"G"B/4d/e/4 "Em"d/4B/4G/4A/4|"D7"B/A/ "G"G|